X:1
T:Arnheim, LM
T:Samuel Holyoke, 1785
T:Arnheim, LM
T:Public Domain
C:Samuel Holyoke, 1785
Z:Public Domain
%%score ( 1 2 ) ( 3 4 )
L:1/8
M:2/4
K:C
V:1 treble 
V:2 treble 
V:3 bass 
V:4 bass 
V:1
 C2 | ([CE][EG]) (Gc) | [Ec]2 G2 | [FA]2 (GF) | [CE]2 [CG]2 | [CA]2 [FB]2 | [Ec]3 [Ec] | %7
 [DB]2 (DC) | [B,G]4 | [DA]2 [DA][DA] | [DB]2 G2 | [Gc]2 [Gd]2 | [Ge]2 [Gd]2 | [Ge]2 [Ge]2 | %14
 [Gd]2 [Ec]2 | [Fc]2 [DB]2 | [Ec]2 |] %17
V:2
 C2 | x2 E2 | x2 G2 | x2 D2 | x4 | x4 | x4 | x2 A2 | x4 | x4 | x2 G2 | x4 | x4 | x4 | x4 | x4 | %16
 x2 |] %17
V:3
 [C,E,]2 | [C,G,]2 [C,G,]2 | [C,G,]2 [E,C]2 | [F,C]2 [G,B,]2 | [C,C]2 [E,C]2 | [F,C]2 [D,D]2 | %6
 [C,G,]3 [C,G,] | [D,G,]2 [D,^F,]2 | [G,,G,]4 | [D,^F,]2 [D,F,][D,F,] | G,2 [F,D]2 | %11
 [E,C]2 [G,B,]2 | C2 [G,B,]2 | C2 [C,C]2 | [G,B,]2 [A,C]2 | [F,A,]2 G,2 | [C,G,]2 |] %17
V:4
 x2 | x4 | x4 | x4 | x4 | x4 | x4 | x4 | x4 | x4 | G,2 x2 | x4 | C2 x2 | C2 x2 | x4 | x2 G,2 | %16
 x2 |] %17

